!!!OTL: Die Lumpenbauern Die Lumpenbauern wollen uns nichts mehr ins Kloster 'neinbringen,
!!!ARE: Europa, Mitteleuropa, Lothringen, Gebenhausen
!!!SCT: D0050
!!!YEM: Copyright 1995, estate of Helmut Schaffrath.
**kern
*ICvox
*Ivox
*MFREI4/4
*k[f#]
*G:
=0
{8c
16g
16g
16g
16g
16g
16g
16g
16g
16g
8a
8.g
16fn
8fn
8e
8e}
=1
{8c
16g
16g
16g
16g
16g
16g
16g
16g
8a
8.g
16fn
8fn
8e
8e}
{8c
16g
16g
16g
16g
16g
16g
16g
16g}
{16g
16g
16g
16g
8a
8.g
16fn
8fn
8fn
4e}
{4g
=2
=3
8g
8g
4g
4a
4a
=4
=5
4.b
8b
4b}
{4a
=6
=7
8g
8g
4g
8a
8a
4a
=8
=9
4.b
8b
4b
4r}
{2dd
4b
4g
=10
=11
4a
4a
4g}
==
!!!AGN: Schwell - Lied, Scherz und Spott
!! Die Tonrepetitionen in der ersten Zeile werden "psalmodierend"
!!    (Vortragsbezeichnung) vorgetragen, zweiter Teil metrisch gebunden
!!!ONB: ESAC (Essen Associative Code) Database: DVA
!!!AMT: irregular
!!!AIN: vox
!!!EED: Helmut Schaffrath
!!!EEV: 1.0
*-
